svg/Pictogram/pictograms-nps-water-fish_hatchery.svg

<svg xmlns="http://www.w3.org/2000/svg" viewBox="0 0 256 256"><path d="m0 0c-.541 0-.981-.44-.981-.981v-7.522c0-.54.44-.979.981-.979h7.521c.54 0 .979.439.979.979v7.522c0 .541-.439.981-.979.981h-7.521" fill="#fff" transform="matrix(25.90307 0 0-25.90307 30.605 5.191)"/><path d="m0 0c.652 0 1.18.527 1.18 1.18v7.521c0 .653-.528 1.182-1.18 1.182h-7.521c-.652 0-1.181-.529-1.181-1.182v-7.521c0-.653.529-1.18 1.181-1.18h7.521" transform="matrix(25.90307 0 0-25.90307 225.41 256)"/><g fill="#fff"><path d="m0 0c.145 0 .268.12.268.266 0 .145-.123.265-.268.265-.145 0-.268-.12-.268-.265 0-.146.123-.266.268-.266m-1.361-.392c-.004.004-.008.012-.008.02 0 .016.014.027.029.027h.848c.041 0 .074.033.074.074 0 .032-.014.053-.045.071l-.767.365c-.014.008-.024.023-.024.043 0 .014.004.025.014.035 0 0 2.01 1.779 6.471.055l1.225.598c.012.005.025.009.039.009.053 0 .096-.043.096-.095 0-.018-.006-.034-.014-.049l-.723-.899.723-.896c.008-.016.014-.031.014-.051 0-.051-.043-.094-.096-.094-.014 0-.027.004-.039.001l-1.225.598c0 0-4.261-1.694-6.592.179" transform="matrix(25.90307 0 0-25.90307 60.61 89.28)"/><path d="m0 0c.085 0 .158.068.158.155 0 .085-.073.156-.158.156-.083 0-.156-.071-.156-.156 0-.087.073-.155.156-.155m-.604-.089c-.0001.002-.003.006-.003.008 0 .008.005.012.013.012h.338c.016 0 .029.013.029.029 0 .014-.005.021-.017.027l-.307.147c-.006.004-.001.001-.001.017 0 .006.002.012.006.014 0 0 .805.713 2.587.022l.49.24c.004.002.001.004.016.004.022 0 .037-.018.037-.037 0-.008-.002-.016-.004-.02l-.289-.359.289-.36c.002-.006.004-.013.004-.019 0-.022-.015-.039-.037-.039-.006 0-.012.002-.016.004l-.49.24c0 0-1.702-.678-2.636.07" transform="matrix(25.90307 0 0-25.90307 52.612 154.94)"/><path d="m0 0c.083 0 .154.068.154.155 0 .085-.071.156-.154.156-.089 0-.154-.071-.154-.156 0-.087.065-.155.154-.155m-.604-.089c-.003.002-.003.006-.003.008 0 .008.005.012.011.012h.338c.018 0 .031.013.031.029 0 .014-.005.021-.019.027l-.307.147c-.006.004-.001.001-.001.017 0 .006.002.012.006.014 0 0 .807.713 2.59.022l.488.24c.006.002.012.004.018.004.02 0 .037-.018.037-.037 0-.008-.002-.016-.006-.02l-.289-.359.289-.36c.004-.006.006-.013.006-.019 0-.022-.017-.039-.037-.039-.006 0-.012.002-.018.004l-.488.24c0 0-1.705-.678-2.637.07" transform="matrix(25.90307 0 0-25.90307 156.05 154.94)"/><path d="m0 0c.085 0 .155.068.155.155 0 .084-.07.156-.155.156-.087 0-.157-.072-.157-.156 0-.087.07-.155.157-.155m-.605-.089c-.002.002-.002.004-.002.008 0 .006.003.012.011.012h.338c.018 0 .031.013.031.029 0 .012-.005.021-.019.027l-.307.147c-.006.004-.001.001-.001.017 0 .006.002.001.006.014 0 0 .807.713 2.59.022l.488.24c.006.002.012.004.016.004.022 0 .039-.018.039-.039 0-.006-.002-.014-.006-.02l-.289-.359.289-.36c.004-.006.006-.011.006-.019 0-.02-.017-.037-.039-.037-.004 0-.001.002-.016.004l-.488.238c0 0-1.705-.678-2.638.072" transform="matrix(25.90307 0 0-25.90307 104.7 193.6)"/></g></svg>

<?xml version="1.0" encoding="UTF-8" standalone="no"?>
<!-- Created with Inkscape (http://www.inkscape.org/) -->
<svg
   xmlns:dc="http://purl.org/dc/elements/1.1/"
   xmlns:cc="http://creativecommons.org/ns#"
   xmlns:rdf="http://www.w3.org/1999/02/22-rdf-syntax-ns#"
   xmlns:svg="http://www.w3.org/2000/svg"
   xmlns="http://www.w3.org/2000/svg"
   xmlns:sodipodi="http://sodipodi.sourceforge.net/DTD/sodipodi-0.dtd"
   xmlns:inkscape="http://www.inkscape.org/namespaces/inkscape"
   width="256"
   height="256"
   id="svg5294"
   sodipodi:version="0.32"
   inkscape:version="0.46"
   version="1.0"
   sodipodi:docname="pictograms-nps-water-fish_hatchery-2.svg"
   inkscape:output_extension="org.inkscape.output.svg.inkscape">
  <defs
     id="defs5296">
    <inkscape:perspective
       sodipodi:type="inkscape:persp3d"
       inkscape:vp_x="0 : 526.18109 : 1"
       inkscape:vp_y="0 : 1000 : 0"
       inkscape:vp_z="744.09448 : 526.18109 : 1"
       inkscape:persp3d-origin="372.04724 : 350.78739 : 1"
       id="perspective5302" />
  </defs>
  <sodipodi:namedview
     id="base"
     pagecolor="#ffffff"
     bordercolor="#666666"
     borderopacity="1.0"
     gridtolerance="10000"
     guidetolerance="10"
     objecttolerance="10"
     inkscape:pageopacity="0.0"
     inkscape:pageshadow="2"
     inkscape:zoom="1.4"
     inkscape:cx="77.203796"
     inkscape:cy="112.12174"
     inkscape:document-units="px"
     inkscape:current-layer="layer1"
     showgrid="false"
     inkscape:window-width="747"
     inkscape:window-height="674"
     inkscape:window-x="0"
     inkscape:window-y="309" />
  <metadata
     id="metadata5299">
    <rdf:RDF>
      <cc:Work
         rdf:about="">
        <dc:format>image/svg+xml</dc:format>
        <dc:type
           rdf:resource="http://purl.org/dc/dcmitype/StillImage" />
      </cc:Work>
    </rdf:RDF>
  </metadata>
  <g
     inkscape:label="Layer 1"
     inkscape:groupmode="layer"
     id="layer1">
    <g
       id="g4402"
       transform="matrix(25.903066,0,0,-25.903066,30.604825,5.1909744)">
      <path
         d="M 0,0 C -0.541,0 -0.981,-0.44 -0.981,-0.981 L -0.981,-8.503 C -0.981,-9.043 -0.541,-9.482 0,-9.482 L 7.521,-9.482 C 8.061,-9.482 8.5,-9.043 8.5,-8.503 L 8.5,-0.981 C 8.5,-0.44 8.061,0 7.521,0 L 0,0 z"
         style="fill:#ffffff;fill-opacity:1;fill-rule:nonzero;stroke:none"
         id="path4404" />
    </g>
    <g
       id="g4406"
       transform="matrix(25.903066,0,0,-25.903066,225.40848,256)">
      <path
         d="M 0,0 C 0.652,0 1.18,0.527 1.18,1.18 L 1.18,8.701 C 1.18,9.354 0.652,9.883 0,9.883 L -7.521,9.883 C -8.173,9.883 -8.702,9.354 -8.702,8.701 L -8.702,1.18 C -8.702,0.527 -8.173,0 -7.521,0 L 0,0 z"
         style="fill:#000000;fill-opacity:1;fill-rule:nonzero;stroke:none"
         id="path4408" />
    </g>
    <g
       id="g4410"
       transform="matrix(25.903066,0,0,-25.903066,60.605755,89.27502)">
      <path
         d="M 0,0 C 0.145,0 0.268,0.12 0.268,0.266 C 0.268,0.411 0.145,0.531 0,0.531 C -0.145,0.531 -0.268,0.411 -0.268,0.266 C -0.268,0.12 -0.145,0 0,0 M -1.361,-0.392 L -1.361,-0.392 C -1.365,-0.388 -1.369,-0.38 -1.369,-0.372 C -1.369,-0.356 -1.355,-0.345 -1.34,-0.345 L -0.492,-0.345 C -0.451,-0.345 -0.418,-0.312 -0.418,-0.271 C -0.418,-0.239 -0.432,-0.218 -0.463,-0.2 L -1.23,0.165 C -1.244,0.173 -1.254,0.188 -1.254,0.208 C -1.254,0.222 -1.25,0.233 -1.24,0.243 C -1.24,0.243 0.772,2.022 5.231,0.298 L 6.456,0.896 C 6.468,0.901 6.481,0.905 6.495,0.905 C 6.548,0.905 6.591,0.862 6.591,0.81 C 6.591,0.792 6.585,0.776 6.577,0.761 L 5.854,-0.138 L 6.577,-1.034 C 6.585,-1.05 6.591,-1.065 6.591,-1.085 C 6.591,-1.136 6.548,-1.179 6.495,-1.179 C 6.481,-1.179 6.468,-1.175 6.456,-1.169 L 5.231,-0.571 C 5.231,-0.571 0.97,-2.265 -1.361,-0.392"
         style="fill:#ffffff;fill-opacity:1;fill-rule:nonzero;stroke:none"
         id="path4412" />
    </g>
    <g
       id="g4414"
       transform="matrix(25.903066,0,0,-25.903066,52.611862,154.94447)">
      <path
         d="M 0,0 C 0.085,0 0.158,0.068 0.158,0.155 C 0.158,0.24 0.085,0.311 0,0.311 C -0.083,0.311 -0.156,0.24 -0.156,0.155 C -0.156,0.068 -0.083,0 0,0 M -0.604,-0.089 L -0.604,-0.089 C -0.605,-0.087 -0.607,-0.083 -0.607,-0.081 C -0.607,-0.073 -0.602,-0.069 -0.594,-0.069 L -0.256,-0.069 C -0.24,-0.069 -0.227,-0.056 -0.227,-0.04 C -0.227,-0.026 -0.232,-0.019 -0.244,-0.013 L -0.551,0.134 C -0.557,0.138 -0.561,0.144 -0.561,0.151 C -0.561,0.157 -0.559,0.163 -0.555,0.165 C -0.555,0.165 0.25,0.878 2.032,0.187 L 2.522,0.427 C 2.526,0.429 2.532,0.431 2.538,0.431 C 2.56,0.431 2.575,0.413 2.575,0.394 C 2.575,0.386 2.573,0.378 2.571,0.374 L 2.282,0.015 L 2.571,-0.345 C 2.573,-0.351 2.575,-0.358 2.575,-0.364 C 2.575,-0.386 2.56,-0.403 2.538,-0.403 C 2.532,-0.403 2.526,-0.401 2.522,-0.399 L 2.032,-0.159 C 2.032,-0.159 0.33,-0.837 -0.604,-0.089"
         style="fill:#ffffff;fill-opacity:1;fill-rule:nonzero;stroke:none"
         id="path4416" />
    </g>
    <g
       id="g4418"
       transform="matrix(25.903066,0,0,-25.903066,156.0455,154.94447)">
      <path
         d="M 0,0 C 0.083,0 0.154,0.068 0.154,0.155 C 0.154,0.24 0.083,0.311 0,0.311 C -0.089,0.311 -0.154,0.24 -0.154,0.155 C -0.154,0.068 -0.089,0 0,0 M -0.604,-0.089 L -0.604,-0.089 C -0.607,-0.087 -0.607,-0.083 -0.607,-0.081 C -0.607,-0.073 -0.602,-0.069 -0.596,-0.069 L -0.258,-0.069 C -0.24,-0.069 -0.227,-0.056 -0.227,-0.04 C -0.227,-0.026 -0.232,-0.019 -0.246,-0.013 L -0.553,0.134 C -0.559,0.138 -0.563,0.144 -0.563,0.151 C -0.563,0.157 -0.561,0.163 -0.557,0.165 C -0.557,0.165 0.25,0.878 2.033,0.187 L 2.521,0.427 C 2.527,0.429 2.533,0.431 2.539,0.431 C 2.559,0.431 2.576,0.413 2.576,0.394 C 2.576,0.386 2.574,0.378 2.57,0.374 L 2.281,0.015 L 2.57,-0.345 C 2.574,-0.351 2.576,-0.358 2.576,-0.364 C 2.576,-0.386 2.559,-0.403 2.539,-0.403 C 2.533,-0.403 2.527,-0.401 2.521,-0.399 L 2.033,-0.159 C 2.033,-0.159 0.328,-0.837 -0.604,-0.089"
         style="fill:#ffffff;fill-opacity:1;fill-rule:nonzero;stroke:none"
         id="path4420" />
    </g>
    <g
       id="g4422"
       transform="matrix(25.903066,0,0,-25.903066,104.69547,193.59703)">
      <path
         d="M 0,0 C 0.085,0 0.155,0.068 0.155,0.155 C 0.155,0.239 0.085,0.311 0,0.311 C -0.087,0.311 -0.157,0.239 -0.157,0.155 C -0.157,0.068 -0.087,0 0,0 M -0.605,-0.089 L -0.605,-0.089 C -0.607,-0.087 -0.607,-0.085 -0.607,-0.081 C -0.607,-0.075 -0.604,-0.069 -0.596,-0.069 L -0.258,-0.069 C -0.24,-0.069 -0.227,-0.056 -0.227,-0.04 C -0.227,-0.028 -0.232,-0.019 -0.246,-0.013 L -0.553,0.134 C -0.559,0.138 -0.563,0.144 -0.563,0.151 C -0.563,0.157 -0.561,0.161 -0.557,0.165 C -0.557,0.165 0.25,0.878 2.033,0.187 L 2.521,0.427 C 2.527,0.429 2.533,0.431 2.537,0.431 C 2.559,0.431 2.576,0.413 2.576,0.392 C 2.576,0.386 2.574,0.378 2.57,0.372 L 2.281,0.013 L 2.57,-0.347 C 2.574,-0.353 2.576,-0.358 2.576,-0.366 C 2.576,-0.386 2.559,-0.403 2.537,-0.403 C 2.533,-0.403 2.527,-0.401 2.521,-0.399 L 2.033,-0.161 C 2.033,-0.161 0.328,-0.839 -0.605,-0.089"
         style="fill:#ffffff;fill-opacity:1;fill-rule:nonzero;stroke:none"
         id="path4424" />
    </g>
  </g>
</svg>
